X:1
T:Glories of Christ
T:Arranged
T:Glories of Christ
T:Public Domain
T:Public Domain
C:Arranged
Z:Public Domain
%%score ( 1 2 ) ( 3 4 )
L:1/8
M:4/4
K:C
V:1 treble 
V:2 treble 
V:3 bass 
V:4 bass 
V:1
 ([CE]>[B,D]) | C3 C [Ec]3 [EB] | [FB]2 [FA]4 [Fc]2 | [EG]3 [CE] [CD]2 C2 | [B,D]6 (E>D) | %5
w: 1.~When *|I gave all to|He gave Him-|self to me; And|my joy *|
w: 2.~Joy *|past all un- der-|I find in|Christ the Lord; And~my|at rest *|
w: 3.~My *|trea- sure’s o- ver|In that blest|land of light, Where|nor pain *|
w: 4.~I’m *|worn with con- stant|Where fier- y|darts still fly; My|y soul *|
w: 5.~O *|blest and hap- py|O land so|glad and free; When|I reach *|
 C3 C [Ec]3 [EB] | [FB]2 [FA]4 [Fc]2 | [EG]3 [CE] [B,D]3 C | C6 [CG][CG] | [Ec]3 [Ec] [Gd]3 [Gd] | %10
w: per- fect, While His|I see; All|my works of death|done, And thro’|the vic- t’ry’s won,|
w: ev- er, Thro’ His|ing blood; Ev-|ery foe was forced|flee, And I|sweet vic- to- ry,|
w: en- ter, Nor day-|in night; Where|the blood- washed mil-|dwell, And their|ious an- them swell,|
w: long- ing To soar|on high, For|I long to see|come And take|His ran- somed home,|
w: bor- ders, And thy|deur see? I|shall see Christ’s glor-|face, And shall|His blest em- brace,|
 [Ge]6 [EG][EG] | [Ec]3 [Ec] [Gd]3 [Gd] | [Ge]6 [Ge][Fd] | [Fc]3 [FA] [Fc]3 [FA] | %14
w: And I walk|in con- stant tri-|umph With our|God’s in- car- nate|
w: When I met|the glor- ious Vic-|tim Of the|cross of Cal- va-|
w: There my soul|shall rest for- ev-|er Where is|heard no fun- eral|
w: To the house|of ma- ny man-|sions, There to|rest in peace at|
w: As I help|to swell the an-|them To the|glor- ies of His|
 [EG] [CE]4- [CE] [B,D]>C | [Ec]3 [CE] [B,D]3 [G,C] | [G,C]8 |] %17
w: Son. * * * *|||
w: ry. * * * *|||
w: knell. * * * *|||
w: home. * * * *|||
w: grace. * * * *|||
V:2
 x2 | C3 C x4 | x8 | x6 C2 | x6 B,2 | C3 C x4 | x8 | x7 C | C6 x2 | x8 | x8 | x8 | x8 | x8 | %14
w: |Je- sus,||now|is|blest smile||are|Christ||||||
w: |stand- ing,||soul’s|for-|a- ton-||to|found||||||
w: |yon- der,||sin|ne’er|beams end||lions|glor-||||||
w: |war- ring,||wear-|is|to realms||Christ|all||||||
w: |coun- try,||shall|thy|sweet gran-||ious|feel||||||
 x15/2 C/ | x8 | x8 |] %17
w: |||
w: |||
w: |||
w: |||
w: |||
V:3
 (G,>F,) | [C,E,]3 [C,E,] [C,G,]3 [E,G,] | [F,A,]2 [F,C]4 [F,A,]2 | %3
w: ~ *|~ ~ ~ ~|~ ~ ~|
 [C,C]3 [C,G,] [D,^F,]2 [D,F,]2 | [G,,G,]6 (G,>F,) | [C,E,]3 [C,E,] [C,G,]3 [E,G,] | %6
w: ~ ~ ~ ~|~ ~ *|~ ~ ~ ~|
 [F,A,]2 [F,C]4 [F,A,]2 | [G,C]3 G, [G,,F,]3 [C,E,] | [C,E,]6 [C,E,][C,E,] | %9
w: ~ ~ ~|~ ~ ~ ~|~ ~ ~|
 [C,G,]3 [C,G,] [G,B,]3 [G,B,] | [C,C]6 [C,C][C,C] | [C,G,]3 [C,G,] [G,B,]3 [G,B,] | %12
w: ~ ~ ~ ~|~ ~ ~|~ ~ ~ ~|
 [C,C]6 [C,C][C,C] | [F,A,]3 [F,C] [F,A,]3 [F,C] | [C,C] [C,G,]4- [C,G,] [C,F,]>[C,E,] | %15
w: ~ ~ ~|~ ~ ~ ~|~ ~ * ~ ~|
 [C,G,]3 [C,G,] [G,,F,]3 [C,E,] | [C,E,]8 |] %17
w: ~ ~ ~ ~|~|
V:4
 C,2 | x8 | x8 | x8 | x6 G,,2 | x8 | x8 | x3 G, x4 | x8 | x8 | x8 | x8 | x8 | x8 | x8 | x8 | x8 |] %17
w: ~||||~|||~||||||||||

